!!!!SEGMENT: pl-wn--sd-xvi-o-240_anonim--kancjonal-zamoyskich-piesn-o-przeciwnosciach-zywota-czlowieka-krzescijanskiego-krzescianie-prawde-boza-prawie-milujacy.krn
!!!cenid: 15xx:798
!!!COM: Anonim
!!!COM-rismID: pe30004985
!!!CDT:
!!!CNT:
!!!GTL: Kancjonał Zamoyskich
!!!OTL: Pieśń o przeciwnościach żywota człowieka krześcijańskiego/Krześcianie prawde Bożą prawie miłujący
!!!PDT: 1558
!!!AGN:
!!!SMS-siglum: PL-Wn
!!!SMS-shelfmark: SD XVI.O.240
!!!SMS-shelfwork: G
!!!SMS-variant:
!!!SMS-altvar:
!!!NIFC-rismSourceID: 990072139
!!!NIFC-islandoraID:
!!!URL-pdf-islandora:
!!!URL-scan: https://polona.pl/item/piesn-o-przeciwnosciach-zywotha-czlowieka-krzescianskiego,MTE3MDY0OA/4/#info:metadata @EN{Scan on Polona} @PL{Skany w portalu Polona}
!!!ONB-nifc: UWAGA: proszę zapisywać tylko teksty występujące bezpośrednio pod nutami
!!!AIN: 1 alto 1 bass 1 soprn 1 tenor
!!!key: g:dor
**kern	**text	**mod-text	**kern	**text	**mod-text	**kern	**text	**mod-text	**kern	**text	**mod-text
*part4	*part4	*part4	*part3	*part3	*part4	*part2	*part2	*part4	*part1	*part1	*part4
*staff4	*staff4	*staff4	*staff3	*staff3	*staff4	*staff2	*staff2	*staff4	*staff1	*staff1	*staff4
*I"BAS.	*	*	*I"TENOR.	*	*	*I"ALT.	*	*	*I"CANTVS.	*	*
*mI"Basso	*	*	*mI"Tenore	*	*	*mI"Alto	*	*	*mI"Soprano	*	*
*I'B	*	*	*I'T	*	*	*I'A	*	*	*I'S	*	*
*Ibass	*	*	*Itenor	*	*	*Ialto	*	*	*Isoprn	*	*
*ICvox	*	*	*ICvox	*	*	*ICvox	*	*	*ICvox	*	*
*clefF4	*	*	*clefC4	*	*	*clefC3	*	*	*clefC1	*	*
*	*	*	*mclefGv2	*	*	*mclefG2	*	*	*mclefG2	*	*
*k[b-]	*	*	*k[b-]	*	*	*k[b-]	*	*	*k[b-]	*	*
*g:dor	*	*	*g:dor	*	*	*g:dor	*	*	*g:dor	*	*
*M2/1	*	*	*M2/1	*	*	*M2/1	*	*	*M2/1	*	*
*met(C|)	*	*	*met(C|)	*	*	*met(C|)	*	*	*met(C|)	*	*
*mmet(c|)	*	*	*mmet(c|)	*	*	*mmet(c|)	*	*	*mmet(c|)	*	*
=1-	=1-	=1-	=1-	=1-	=1-	=1-	=1-	=1-	=1-	=1-	=1-
1G	Krʒe-	Krze-	1G	Krʒe-	Krze-	1.d	.	Krze-	1g	.	Krze-
1G	-ſciá-	-ścia-	1B-	-ſciá-	-ścia-	.	.	.	2.d/	.	-ścia-
.	.	.	.	.	.	2B-/	.	-ścia-	.	.	.
.	.	.	.	.	.	.	.	.	4e/	.	.
=2-	=2-	=2-	=2-	=2-	=2-	=2-	=2-	=2-	=2-	=2-	=2-
2D/	-nie	.	1A	-nie	-nie	2d\	.	.	1f	.	-nie
2F\	praw-	-nie	.	.	.	2c/	.	-nie	.	.	.
2C/	-dę	praw-	1G	praw-	praw-	2e-X\	.	praw-	2.g/	.	praw-
!LO:MO:mod=[2E-	!	!	!	!	!	!	!	!	!	!	!
1E-X\	Bo-	.	.	.	.	4c/	.	.	.	.	.
.	.	.	.	.	.	4d\	.	.	4f/	.	.
=3-	=3-	=3-	=3-	=3-	=3-	=3-	=3-	=3-	=3-	=3-	=3-
!LO:MO:null:mod=2E-]	!	!	!	!	!	!LO:SIC:s=2e-i	!	!	!	!	!
.	.	.	1B-	-dę	-dę	2e-y\	.	.	4g/	.	.
.	.	.	.	.	.	.	.	.	4a\	.	.
2D/	.	-dę	.	.	.	1f	.	-dę	1b-	.	-dę
1C	.	Bo-	1c	Bo-	Bo-	.	.	.	.	.	.
!	!	!	!	!	!	!LO:SIC:s=2e-i	!	!	!	!	!
.	.	.	.	.	.	2e-\	.	Bo-	2a\	.	Bo-
=4-	=4-	=4-	=4-	=4-	=4-	=4-	=4-	=4-	=4-	=4-	=4-
0BB-	-ża	-żą	0d	-żą	-żą	0f	.	-żą	0b-	.	-żą
=5-	=5-	=5-	=5-	=5-	=5-	=5-	=5-	=5-	=5-	=5-	=5-
1BB-	prá-	pra-	1d	prá-	pra-	1f	.	pra-	1b-	.	pra-
1BB-	-wie	-wie	1d	-wie	-wie	1f	.	-wie	1b-	.	-wie
=6-	=6-	=6-	=6-	=6-	=6-	=6-	=6-	=6-	=6-	=6-	=6-
1F	mi-	mi-	1c	mi-	mi-	1f	.	mi-	1a	.	mi-
1G	-łu-	-łu-	1B-	-łu-	-łu-	1d	.	-łu-	1.g	.	-łu-
*custos:D	*	*	*	*	*	*	*	*	*	*	*
!LO:LB:g=original	!	!	!	!	!	!	!	!	!	!	!
=7-	=7-	=7-	=7-	=7-	=7-	=7-	=7-	=7-	=7-	=7-	=7-
0D	-ią-	-ją-	0A	-ią-	-ją-	0d	.	-ją-	.	.	.
!	!	!	!	!	!	!	!	!	!LO:SIC:s=4f#i	!	!
.	.	.	.	.	.	.	.	.	4f/	.	.
.	.	.	.	.	.	.	.	.	4e/	.	.
*	*	*	*	*	*	*	*	*	*custos:f	*	*
!	!	!	!	!	!	!	!	!	!LO:SIC:s=1f#i	!	!
!	!	!	!	!	!	!	!	!	!LO:LB:g=original	!	!
.	.	.	.	.	.	.	.	.	1f	.	-ją-
=8-	=8-	=8-	=8-	=8-	=8-	=8-	=8-	=8-	=8-	=8-	=8-
0GG	-ci/	-cy	0G	-cy/	-cy	0d	.	-cy	0g	.	-cy
*	*	*	*custos:d	*	*	*custos:g	*	*	*	*	*
!	!	!	!LO:LB:g=original	!	!	!LO:LB:g=original	!	!	!	!	!
=9-	=9-	=9-	=9-	=9-	=9-	=9-	=9-	=9-	=9-	=9-	=9-
!	!	!	!LO:MO:mod=*null:null	!	!	!	!	!	!	!	!
*	*	*	*clefC3	*	*	*	*	*	*	*	*
0G	Prʒe	przez	0d	Prʒe	przez	0g	.	przez	0b-	.	przez
=10-	=10-	=10-	=10-	=10-	=10-	=10-	=10-	=10-	=10-	=10-	=10-
1G	ie-	Je-	1d	ie-	Je-	1g	.	Je-	1b-	.	Je-
4D\	-go	-go	1.f	-go	-go	1.a	.	-go	1.dd	.	-go
4Eny\	.	.	.	.	.	.	.	.	.	.	.
4F\	.	.	.	.	.	.	.	.	.	.	.
4G\	.	.	.	.	.	.	.	.	.	.	.
=11-	=11-	=11-	=11-	=11-	=11-	=11-	=11-	=11-	=11-	=11-	=11-
1A	ſwie-	świę-	.	.	.	.	.	.	.	.	.
.	.	.	2e\	ſwię-	świę-	2g\	.	świę-	2cc\	.	świę-
1B-	-te	-te	1d	-te	-te	1f	.	-te	1.b-	.	-te
=12-	=12-	=12-	=12-	=12-	=12-	=12-	=12-	=12-	=12-	=12-	=12-
0F	ſlo-	sło-	0c	ſlo-	sło-	0f	.	sło-	.	.	.
.	.	.	.	.	.	.	.	.	4a\	.	.
.	.	.	.	.	.	.	.	.	4g/	.	.
.	.	.	.	.	.	.	.	.	1a	.	sło-
=13-	=13-	=13-	=13-	=13-	=13-	=13-	=13-	=13-	=13-	=13-	=13-
1G	-wo	-wo	1B-	-wo	-wo	1d	.	-wo	1b-	.	-wo
1C	ćię-	cięż-	1e-X	ćię-	cięż-	1g	.	cięż-	1cc	.	cięż-
=14-	=14-	=14-	=14-	=14-	=14-	=14-	=14-	=14-	=14-	=14-	=14-
*lig	*	*	*	*	*	*	*	*	*	*	*
1G	-ſʒko-	-ko-	0d	-ſʒko-	-ko-	1g	.	-ko-	1b-	.	-ko-
1D	.	.	.	.	.	0f	.	-ści	0a	.	-ści
*Xlig	*	*	*	*	*	*	*	*	*	*	*
=15-	=15-	=15-	=15-	=15-	=15-	=15-	=15-	=15-	=15-	=15-	=15-
1F	-ſci	-ści	1c	-ſci	-ści	.	.	.	.	.	.
1G	ćyer-	cier-	1B-	ćier-	cier-	1d	.	cier-	1.g	.	cier-
=16-	=16-	=16-	=16-	=16-	=16-	=16-	=16-	=16-	=16-	=16-	=16-
0D	-pią-	-pią-	0A	-pią-	-pią-	0d	.	-pią-	.	.	.
!	!	!	!	!	!	!	!	!	!LO:SIC:s=4f#i	!	!
.	.	.	.	.	.	.	.	.	4f/	.	.
.	.	.	.	.	.	.	.	.	4e/	.	.
!	!	!	!	!	!	!	!	!	!LO:SIC:s=1f#i	!	!
.	.	.	.	.	.	.	.	.	1f	.	-pią-
*	*	*	*	*	*	*	*	*	*custos:g	*	*
!	!	!	!	!	!	!	!	!	!LO:LB:g=original	!	!
=17-	=17-	=17-	=17-	=17-	=17-	=17-	=17-	=17-	=17-	=17-	=17-
0GG	-ci/	-cy.	0G	-cy/	-cy.	0B-	.	-cy.	0g	.	-cy.
*custos:D	*	*	*custos:A	*	*	*	*	*	*	*	*
!LO:LB:g=original	!	!	!LO:LB:g=original	!	!	!	!	!	!	!	!
=18-	=18-	=18-	=18-	=18-	=18-	=18-	=18-	=18-	=18-	=18-	=18-
!	!	!	!LO:MO:mod=*null:null	!	!	!	!	!	!	!	!
*	*	*	*clefC4	*	*	*	*	*	*	*	*
1D	Szu-	Szu-	1A	Szu-	Szu-	1d	.	Szu-	1f	.	Szu-
1D	-kay-	-kaj-	1A	-kay-	-kaj-	1d	.	-kaj-	1f	.	-kaj-
=19-	=19-	=19-	=19-	=19-	=19-	=19-	=19-	=19-	=19-	=19-	=19-
1BB-	-ćieſʒ	-cież	1B-	-ćieſż	-cież	1d	.	-cież	1f	.	-cież
!LO:MO:mod=[1E-	!	!	!	!	!	!	!	!	!	!	!
1.E-X	po-	po-	1G	po-	po-	2e-X\	.	po-	2.g/	.	po-
.	.	.	.	.	.	4c/	.	.	.	.	.
.	.	.	.	.	.	4d\	.	.	4f/	.	.
*	*	*	*	*	*	*custos:e	*	*	*	*	*
!	!	!	!	!	!	!LO:LB:g=original	!	!	!	!	!
=20-	=20-	=20-	=20-	=20-	=20-	=20-	=20-	=20-	=20-	=20-	=20-
!LO:MO:null:mod=2E-]	!	!	!	!	!	!LO:SIC:s=2e-i	!	!	!	!	!
.	.	.	1B-	-ćie-	-cie-	2e-y\	.	.	4g\	.	.
.	.	.	.	.	.	.	.	.	4a\	.	.
2D/	-ćie-	-cie-	.	.	.	1f	.	-cie-	1b-	.	-cie-
1C	-ſſe-	-sze-	1c	-ſſe-	-sze-	.	.	.	.	.	.
!	!	!	!	!	!	!LO:SIC:s=2e-i	!	!	!	!	!
.	.	.	.	.	.	2e-\	.	-sze-	2a\	.	-sze-
=21-	=21-	=21-	=21-	=21-	=21-	=21-	=21-	=21-	=21-	=21-	=21-
0BB-	-nia	-nia	0d	-nia	-nia	0f	.	-nia	0b-	.	-nia
=22-	=22-	=22-	=22-	=22-	=22-	=22-	=22-	=22-	=22-	=22-	=22-
1F	ʒ_Kry-	z_Kry-	1c	ʒ_Kry-	z_Kry-	1f	.	z_Kry-	1a	.	z_Kry-
2BB-/	-ſto-	-sto-	1d	-ſto-	-sto-	1f	.	-sto-	1.b-	.	-sto-
2C/	.	.	.	.	.	.	.	.	.	.	.
=23-	=23-	=23-	=23-	=23-	=23-	=23-	=23-	=23-	=23-	=23-	=23-
2D\	-wa	-wą	1c	-wá	-wą	1f	.	-wą	.	.	.
2Eny\	.	.	.	.	.	.	.	.	2a\	.	-wą
1F	ka-	ka-	1c	ka-	ka-	1f	.	ka-	1.a	.	ka-
=24-	=24-	=24-	=24-	=24-	=24-	=24-	=24-	=24-	=24-	=24-	=24-
0G	-ʒá-	-za-	0B-	-ʒá-	-za-	0d	.	-za-	.	.	.
.	.	.	.	.	.	.	.	.	4g/	.	.
.	.	.	.	.	.	.	.	.	4f/	.	.
.	.	.	.	.	.	.	.	.	1g	.	-za-
*	*	*	*	*	*	*	*	*	*custos:a	*	*
!	!	!	!	!	!	!	!	!	!LO:LB:g=original	!	!
=25-	=25-	=25-	=25-	=25-	=25-	=25-	=25-	=25-	=25-	=25-	=25-
0D	-nia/	-nia	0A	-nia/	-nia	0d	.	-nia	0a	.	-nia
*custos:F	*	*	*custos:A	*	*	*	*	*	*	*	*
!LO:LB:g=original	!	!	!LO:LB:g=original	!	!	!	!	!	!	!	!
=26-	=26-	=26-	=26-	=26-	=26-	=26-	=26-	=26-	=26-	=26-	=26-
!	!	!	!LO:MO:mod=*null:null	!	!	!	!	!	!	!	!
*	*	*	*clefC3	*	*	*	*	*	*	*	*
1F	U-	a-	1A	U-	a-	1c	.	a-	1f	.	a-
1D	-byſ-	-byś-	1A	-byſ-	-byś-	1d	.	-byś-	1f	.	-byś-
=27-	=27-	=27-	=27-	=27-	=27-	=27-	=27-	=27-	=27-	=27-	=27-
1G	-cie	-cie	1B-	-cye	-cie	1d	.	-cie	1.g	.	-cie
!	!	!	!	!	!	!LO:SIC:s=2.e-i	!	!	!	!	!
1C	by-	by-	1c	by-	by-	2.eny\	.	by-	.	.	.
.	.	.	.	.	.	.	.	.	2cc\	.	by-
.	.	.	.	.	.	4f\	.	.	.	.	.
=28-	=28-	=28-	=28-	=28-	=28-	=28-	=28-	=28-	=28-	=28-	=28-
1G	-li	-li	1d	-li	-li	1g	.	-li	2b-\	.	-li
.	.	.	.	.	.	.	.	.	1dd	.	sta-
!LO:SIC:s=1E-i	!	!	!LO:SIC:s=1e-i	!	!	!	!	!	!	!	!
1E	ſta-	sta-	1eny	ſta-	sta-	1g	.	sta-	.	.	.
.	.	.	.	.	.	.	.	.	2cc\	.	.
=29-	=29-	=29-	=29-	=29-	=29-	=29-	=29-	=29-	=29-	=29-	=29-
1D	-li	-li	1f	-li	-li	1a	.	-li	1.dd	.	-li
1F	w_po-	w_po-	1f	w_po-	w_po-	1a	.	w_po-	.	.	.
.	.	.	.	.	.	.	.	.	2cc\	.	w_po-
*	*	*	*	*	*	*custos:g	*	*	*	*	*
!	!	!	!	!	!	!LO:LB:g=original	!	!	!	!	!
=30-	=30-	=30-	=30-	=30-	=30-	=30-	=30-	=30-	=30-	=30-	=30-
*lig	*	*	*	*	*	*	*	*	*	*	*
1G	-ku-	-ku-	0d	-ku-	-ku-	1g	.	-ku-	1b-	.	-ku-
1D	.	.	.	.	.	0f	.	-sze-	0a	.	-sze-
*Xlig	*	*	*	*	*	*	*	*	*	*	*
=31-	=31-	=31-	=31-	=31-	=31-	=31-	=31-	=31-	=31-	=31-	=31-
1F	-ſſe-	-sze-	1c	-ſſe-	-sze-	.	.	.	.	.	.
1G	-niu	-niu	1B-	-niu	-niu	1d	.	-niu	1.g	.	-niu
=32-	=32-	=32-	=32-	=32-	=32-	=32-	=32-	=32-	=32-	=32-	=32-
0D	trwá-	trwa-	0A	trwá-	trwa-	0d	.	trwa-	.	.	.
!	!	!	!	!	!	!	!	!	!LO:SIC:s=4f#i	!	!
.	.	.	.	.	.	.	.	.	4f/	.	.
.	.	.	.	.	.	.	.	.	4e/	.	.
!	!	!	!	!	!	!	!	!	!LO:SIC:s=1f#i	!	!
.	.	.	.	.	.	.	.	.	1f	.	trwa-
=33-	=33-	=33-	=33-	=33-	=33-	=33-	=33-	=33-	=33-	=33-	=33-
!LO:SIC:s=0GG;	!	!	!LO:SIC:s=0G;	!	!	!LO:SIC:s=0d;	!	!	!LO:SIC:s=0g;	!	!
0GGl	-li.	-li.	0Gl\	-li.	-li.	0dl	.	-li.	0gl	.	-li.
==	==	==	==	==	==	==	==	==	==	==	==
*-	*-	*-	*-	*-	*-	*-	*-	*-	*-	*-	*-
!!!system-decoration: [(*)]
!!LO:MO:ori
!!!RDF**kern: l = terminal long
!!LO:MO:mod
!! !!!RDF**kern: i = editorial accidental
!!LO:MO:end
!!!filter-modern: shed -e "s/TX(.*):t=P:/tx$1:t=P:/LG" | shed -e "s/^custos:/Xcustos:/I" | sic -sq | modori -m | autostem -r | tie -s | humtr -p | shed -e "s/-//B"
!!!ENC: Andrzej Kubiczek
!!!END: 2022-04-24
!!!ENC: Andrzej Kubiczek
!!!END: 2022-04-25
!!!ENC-modern: Andrzej Kubiczek
!!!END-modern: 2022-07-23
